src/basic/700/u27F6-longarrow.svg

<svg width="33" height="20" viewBox="0 0 33 20" fill="none" xmlns="http://www.w3.org/2000/svg">
<path fill-rule="evenodd" clip-rule="evenodd" d="M30.5644,11h-30.5644v-1h30.6127l-4.8949,-4.8965l0.7072,-0.70699l5.7143,5.71619l0.3495,0.3496l-0.3456,0.3535l-5.7143,5.8438l-0.715,-0.6992z" fill="black"/>
</svg>

<svg width="33" height="20" viewBox="0 0 33 20" fill="none" xmlns="http://www.w3.org/2000/svg">
<path fill-rule="evenodd" clip-rule="evenodd" d="M30.5644 11H0V10H30.6127L25.7178 5.1035L26.425 4.39651L32.1393 10.1127L32.4888 10.4623L32.1432 10.8158L26.4289 16.6596L25.7139 15.9604L30.5644 11Z" fill="black"/>
</svg>
